X:1     %Music
T:First Britford Carol
B: Wiltshire Folk Songs and Carols, W Matt and Sons, Bournemouth
Z:Rev Geoffry Hill and Walter Barnett
F:http://www.folkinfo.org/songs
M:4/4     %Meter
L:1/8     %
K:Bb
F2 |B2 B2 B2 c2 |d2 c2 d3 c |B2 B2 A2 G2 |F6
w:Re-joice the prom-ised Sa-viour's come, And shall the blind be-hold;
F2 |(GA) B2 (AB) c2 |(Bc) d2 (cd) e2 |(dc) B2 (dc) (BA) |B4
w:The deaf_ shall hear_ and by_ the dumb_ His wond-*rous works_ be_ told.
c4 |c2 B2 A2 G2 |F4 F4 |(G3A) (B2B2) | (A3GFA) c2 |B6 z2 |]
w:His wond-rous works be told His wond_ drous_ works_** be told 